X:6
T:Norsk Reil\"ander
R:reil\"ander
O:Norge
Z:hn-schottis-6
M:C|
K:Dm
A>^cd>e f2f2|f>ee>^c A2A2|A>BA>G F>ED>F|(3A=BAG>=B (3=BcBA2|
A>^cd>e f2f2|f>ee>^g a2a2|a>ge>g f>ed>f|e2^c2 d4:|
|:f>ef>g f>ed2|d>ef>d ^c2A2|F>AG>A F>AG>A|F>AG>=B (3=BcBA2|
A>^cd>e f2f2|f>ee>^g a2a2|a>ge>g f>ed>f|e2^c2 d4:|
<end>
<start>
